X:35
T:Morgiana in Ireland. RH.035
R:jig
S:Rev.R.Harrison’s MS,c1815,Cumbria
O:England
A:Temple Sowerby,Cumbria
Z:vmp.Simon Wilson. Review PJH, 2008.
M:6/8
L:1/8
Q:3/8=120
K:G
D2D G2G|AGA B3|D2D G2A|B2c BGE|!
D2D G2G|AGA B2e|edc BcA|G2A BGE:|!
|:d2d dcB|e2f g3|d2d dcB|e2f gdB|!
d2d dcB|efe efg|dec BcA|G2A BGE||!
GAG Bdz|ABA cez|GAGG2A|B2c BGE|!
GAG Bdz|cez Bdz|egz Bdz|G2A BGE:|

